icons/chevron-left.svg

<?xml version="1.0" standalone="no"?><!-- Generator: Gravit.io --><svg xmlns="http://www.w3.org/2000/svg" xmlns:xlink="http://www.w3.org/1999/xlink" width="96" height="96"><path d=" M 64.94999999999999 5.200000000000003 L 25.75 44.300000000000004 L 24.25 48.00000000000001 L 25.75 51.70000000000001 L 64.95 90.8 C 65.65 91.60000000000001 66.65 92 67.75 92 C 68.85 92 69.85 91.60000000000001 70.55 90.8 C 71.35 90.10000000000001 71.75 89.10000000000001 71.75 88 C 71.75 86.9 71.35 85.9 70.55 85.2 L 33.45 48.00000000000001 L 70.54999999999998 10.799999999999997 C 71.35 10.099999999999994 71.75 9.099999999999994 71.75 8 C 71.75 6.900000000000006 71.35 5.900000000000006 70.54999999999998 5.200000000000003 C 69.85 4.400000000000006 68.85 4 67.75 4 C 66.64999999999999 4 65.64999999999999 4.400000000000006 64.94999999999999 5.200000000000003 Z " fill="#454545" stroke="none"/><mask id="_mask_i9VUdTxDVZ9jsGSHYrLEr2o1hkRiIwLJ"><path d=" M 64.94999999999999 5.200000000000003 L 25.75 44.300000000000004 L 24.25 48.00000000000001 L 25.75 51.70000000000001 L 64.95 90.8 C 65.65 91.60000000000001 66.65 92 67.75 92 C 68.85 92 69.85 91.60000000000001 70.55 90.8 C 71.35 90.10000000000001 71.75 89.10000000000001 71.75 88 C 71.75 86.9 71.35 85.9 70.55 85.2 L 33.45 48.00000000000001 L 70.54999999999998 10.799999999999997 C 71.35 10.099999999999994 71.75 9.099999999999994 71.75 8 C 71.75 6.900000000000006 71.35 5.900000000000006 70.54999999999998 5.200000000000003 C 69.85 4.400000000000006 68.85 4 67.75 4 C 66.64999999999999 4 65.64999999999999 4.400000000000006 64.94999999999999 5.200000000000003 Z " fill="white" stroke="none"/></mask><path d=" M 64.94999999999999 5.200000000000003 L 25.75 44.300000000000004 L 24.25 48.00000000000001 L 25.75 51.70000000000001 L 64.95 90.8 C 65.65 91.60000000000001 66.65 92 67.75 92 C 68.85 92 69.85 91.60000000000001 70.55 90.8 C 71.35 90.10000000000001 71.75 89.10000000000001 71.75 88 C 71.75 86.9 71.35 85.9 70.55 85.2 L 33.45 48.00000000000001 L 70.54999999999998 10.799999999999997 C 71.35 10.099999999999994 71.75 9.099999999999994 71.75 8 C 71.75 6.900000000000006 71.35 5.900000000000006 70.54999999999998 5.200000000000003 C 69.85 4.400000000000006 68.85 4 67.75 4 C 66.64999999999999 4 65.64999999999999 4.400000000000006 64.94999999999999 5.200000000000003 Z " fill="none" stroke="none" stroke-width="16" mask="url(#_mask_i9VUdTxDVZ9jsGSHYrLEr2o1hkRiIwLJ)"/></svg>

<svg xmlns="http://www.w3.org/2000/svg" width="96" height="96"><path d="M64.95 5.2l-39.2 39.1-1.5 3.7 1.5 3.7 39.2 39.1c.7.8 1.7 1.2 2.8 1.2 1.1 0 2.1-.4 2.8-1.2.8-.7 1.2-1.7 1.2-2.8 0-1.1-.4-2.1-1.2-2.8L33.45 48l37.1-37.2c.8-.7 1.2-1.7 1.2-2.8 0-1.1-.4-2.1-1.2-2.8-.7-.8-1.7-1.2-2.8-1.2-1.1 0-2.1.4-2.8 1.2z" fill="#454545"/></svg>
